X:1
T:Anach Cuan
K:Ddor
L:1/8
M:3/4
D DE|F2ED(3EDC|c2de dc|A2GE DD|C3 D D E
|F2ED(3EDC|c2de dc|A2GE DD|D3 A A c
|d2ed AB|c2 de dc|A2GE DE|C3 D D E
|F2ED(3EDC|c2de dc|A2GE DD|D3||
W:
W: M fhaighimse slinte is fada a bheas trcht ar
W: an mhid a bathadh as Anach Cuan.
W: Mo thrua amrach gach athair is mthair
W: bean is piste at sileadh sl.
W: A R na ngrasta, a cheap neamh is Prthas,
W: nr bheg an tbhacht dinn beirt n trir
W: Ach l chomh bre leis gan gaoth gan bisteach
W: is ln an bhid acu a scuabadh ar siil.
W:
W: Nr mhr an t-onadh os comhair na ndaoine
W: a bhfeiscint snte ar chl a gcinn
W: Screadadh is caoineadh a scanrdh daoine,
W: gruaig  coradh is an chreach  roinn.
W: Bh bhuchaill ga ann, tocht an fhmhair,
W:  sneadh ar chrchar is  dtabhairt go cill.
W: Is gurbh  glas a bpsta a bh  dtorramh
W: is, a Dhia na glire, nr mhr an feall
W:
W: Loscadh slibh agus scalladh clibhe
W: ar an it ar agadar is millen crua,
W: mar is ioma cratr a d'fhg s ag garghol,
W: ag sileadh is ag agaoin gach maidin Luain.
W: N dobhil eolais a chuir d treoir iad
W: ach m-adh mr a bh sa gCaislen Nua.
W: Is  crochn an amhrin gur bthadh mrn
W: is d'fhg bhar dlis ag Anach Cuan.
